static/logos/instatus-glyph-color.svg

<svg width="43" height="50" viewBox="0 0 43 50" fill="none" xmlns="http://www.w3.org/2000/svg">
<g clip-path="url(#clip0_1_2320)">
<path d="M14.5469 44.8408C10.306 43.1741 6.61473 40.046 4.30374 35.7095C-0.849486 26.0395 2.81199 14.023 12.4819 8.86986C21.8993 3.85115 33.5425 7.19289 38.9041 16.303C36.3648 22.1893 32.3128 28.4091 26.9606 34.1983C23.0121 38.4693 18.7744 42.0531 14.5469 44.8408Z" fill="black"/>
<path d="M0.916953 49.5303C-1.29122 47.8697 0.839517 42.3588 3.59661 38.6184L4.44989 39.8231C3.42506 42.2427 1.63855 47.1621 8.97457 41.4893C16.3105 35.8166 28.6041 20.0082 33.8819 10.4732C38.1041 2.84521 33.5377 4.65693 30.7987 6.41044L29.5976 5.76455C32.3804 3.06791 37.2285 -0.179842 39.5486 0.841081C44.5816 3.05573 40.8336 17.4585 29.5159 31.4244C18.1981 45.3902 4.03243 51.873 0.916953 49.5303Z" fill="black"/>
<path d="M41.5364 24.2218C42.3894 32.0456 38.5097 39.9601 31.1395 43.8878C28.6321 45.224 25.9671 45.9676 23.3047 46.1674C25.8703 41.3847 29.3293 36.4772 33.5766 31.8108C36.1414 28.9931 38.8207 26.4532 41.5364 24.2218Z" fill="black"/>
</g>
<defs>
<clipPath id="clip0_1_2320">
<rect width="42.0635" height="50" fill="white"/>
</clipPath>
</defs>
</svg>

<svg xmlns="http://www.w3.org/2000/svg" width="55.04" height="64" fill="none" viewBox="0 0 43 50"><g fill="#000" clip-path="url(#a)"><path d="M14.547 44.84a19.762 19.762 0 0 1-10.243-9.13C-.85 26.04 2.812 14.022 12.482 8.87c9.417-5.019 21.06-1.677 26.422 7.433-2.54 5.886-6.591 12.106-11.943 17.895-3.949 4.271-8.187 7.855-12.414 10.643Z"/><path d="M.917 49.53c-2.208-1.66-.077-7.171 2.68-10.912l.853 1.205c-1.025 2.42-2.811 7.34 4.525 1.666 7.336-5.672 19.63-21.48 24.907-31.016 4.222-7.628-.344-5.816-3.083-4.063l-1.201-.645C32.38 3.068 37.228-.18 39.548.84c5.034 2.215 1.286 16.618-10.032 30.583C18.198 45.39 4.032 51.873.917 49.53ZM41.536 24.222c.853 7.824-3.026 15.738-10.396 19.666a19.771 19.771 0 0 1-7.835 2.28c2.565-4.783 6.024-9.69 10.272-14.357a76.358 76.358 0 0 1 7.96-7.59Z"/></g><defs><clipPath id="a"><path fill="#fff" d="M0 0h42.063v50H0z"/></clipPath></defs></svg>
